img/header-keyboard_tab.svg

<svg width="24" height="24" fill="none" xmlns="http://www.w3.org/2000/svg"><path d="M11.59 7.41 15.17 11H1v2h14.17l-3.59 3.59L13 18l6-6-6-6-1.41 1.41ZM20 6v12h2V6h-2Z"/></svg>

<svg width="24" height="24" viewBox="0 0 24 24" fill="none" xmlns="http://www.w3.org/2000/svg">
<path d="M11.59 7.41L15.17 11H1V13H15.17L11.58 16.59L13 18L19 12L13 6L11.59 7.41ZM20 6V18H22V6H20Z"/>
</svg>
